!!!!SEGMENT: pl-kk--kk-i-66--009_anonim--missa-deo-gratias.krn
!!!cenid: 17xx:2266
!!!COM: Anonim
!!!COM-rism: pe30004985
!!!CDT:
!!!CNT:
!!!OTL: Missa – Deo gratias
!!!PDT:
!!!AGN: Sacred; Mass
!!!SMS-siglum: PL-Kk
!!!SMS-shelfmark: Kk.I.66
!!!NIFC-rismID: 1001154622
!!!URL-scan: http://repozytorium.nifc.pl/skany/pl-kk-nut--i-66
!!!ONB-nifc: UWAGA: części Mszy: 1. Salve sancta parens, 2. Kyrie, 3. Et in terra, 4. Alleluia virga jesse floruit, 5. Beata es virgo Maria, 6. Sanctus, 7. Agnus Dei, 8. Dona nobis, 9. Deo gratias
!!!SMS-variant:
!!!SMS-altvar:
**kern	**text	**kern	**text	**kern	**text
*part3	*part3	*part2	*part2	*part1	*part1
*staff3	*staff3	*staff2	*staff2	*staff1	*staff1
*I"Baſso	*	*I"Tenore Secundo.	*	*I"Tenore Primo	*
*I'B	*	*I'T 2	*	*I'T 1	*
*clefF4	*	*clefC4	*	*clefC4	*
*k[]	*	*k[]	*	*k[]	*
*M2/2	*	*M2/2	*	*M2/2	*
*met(c|)	*	*met(c|)	*	*met(c|)	*
*2\right	*	*2\right	*	*2\right	*
=1	=1	=1	=1	=1	=1
!LO:TX:t=P:problem:2\right:global	!	!	!	!	!
!LO:TX:t=P:problem:partia basu zapisana na podstawie skanu 0014 ustalone z E.Z.	!	!	!	!	!
2C\	De-	1G	De-	1c	De-
2E\	.	.	.	.	.
=2	=2	=2	=2	=2	=2
2G\	.	1B	.	1d	.
2GG/	.	.	.	.	.
=3	=3	=3	=3	=3	=3
!	!	!	!	!LO:TX:t=P:problem:2\right:global	!
2C/	.	2G/	.	2e\	.
!	!	!LO:TX:t=P:problem:2\right:global	!	!	!
2G\	.	2B\	.	2d\	.
=4	=4	=4	=4	=4	=4
2G\	.	2d\	.	2f\	.
2c\	.	2c\	.	2e\	.
=5	=5	=5	=5	=5	=5
2G\	.	2B\	.	2d\	.
2E\	-o	2G/	-o	2c\	-o
=6	=6	=6	=6	=6	=6
2G\	gra-	2B\	gra-	2d\	gra-
2E\	.	2c\	.	2e\	.
=7	=7	=7	=7	=7	=7
2.G\	.	2.B\	.	2.d\	.
4G\	-ti-	4B\	-ti-	4d\	-ti-
=8	=8	=8	=8	=8	=8
1C	-as	1G	-as	1e	-as
==	==	==	==	==	==
*-	*-	*-	*-	*-	*-
!!!system-decoration: [(s1,s2,s3)]
!!!ENC: Kamil Watkowski
!!!END: 2021-08-06
